archcraft-icons-zafiro/files/Zafiro/actions/22/media-random-tracks-amarok.svg

<svg xmlns="http://www.w3.org/2000/svg" viewBox="0 0 22 22">
  <defs id="defs3051">
    <style type="text/css" id="current-color-scheme">
      .ColorScheme-Text {
        color:#eff0f1;
      }
      </style>
  </defs>
 <path 
    style="fill:currentColor;fill-opacity:1;stroke:none" 
    d="M 4.5 3 C 3.6715787 3 3.0000083 3.6715704 3 4.5 C 3.0000083 5.3284296 3.6715787 6 4.5 6 C 5.3284213 6 5.9999917 5.3284296 6 4.5 C 5.9999917 3.6715704 5.3284213 3 4.5 3 z M 7 4 L 7 5 L 8 5 L 8 4 L 7 4 z M 9 4 L 9 5 L 19 5 L 19 4 L 9 4 z M 9 6 L 9 7 L 12 7 L 12 6 L 9 6 z M 4.5 9 C 3.6715732 8.9999988 3 9.6715721 3 10.5 C 3 11.328428 3.6715732 12.000001 4.5 12 C 5.3284268 12.000001 6 11.328428 6 10.5 C 6 9.6715721 5.3284268 8.9999988 4.5 9 z M 7 10 L 7 11 L 8 11 L 8 10 L 7 10 z M 17 11 L 17 12 L 16 12 L 15.976562 12 C 14.327553 12 13 13.327553 13 14.976562 L 13 15 C 13 16.108 12.108 17 11 17 L 8 17 L 8 18 L 11 18 L 11.023438 18 C 12.672447 18 14 16.672447 14 15.023438 L 14 15 C 14 13.892 14.892 13 16 13 L 17 13 L 17 14 L 19 12.5 L 17 11 z M 8 12 L 8 13 L 11 13 C 11.3989 13 11.766765 13.118679 12.078125 13.318359 C 12.153825 12.981499 12.287997 12.669139 12.466797 12.386719 C 12.037917 12.147809 11.551108 12 11.023438 12 L 11 12 L 8 12 z M 4.5 15 C 3.6715732 14.999999 3 15.671572 3 16.5 C 3 17.328428 3.6715732 18.000001 4.5 18 C 5.3284268 18.000001 6 17.328428 6 16.5 C 6 15.671572 5.3284268 14.999999 4.5 15 z M 17 16 L 17 17 L 16 17 C 15.6011 17 15.233245 16.881321 14.921875 16.681641 C 14.846175 17.018501 14.712003 17.330861 14.533203 17.613281 C 14.962083 17.852191 15.448892 18 15.976562 18 L 16 18 L 17 18 L 17 19 L 19 17.5 L 17 16 z "
    class="ColorScheme-Text"
    />  
</svg>

<?xml version="1.0" encoding="UTF-8"?>
<svg xmlns="http://www.w3.org/2000/svg" viewBox="0 0 22 22">
  <defs id="defs3051">
    <style type="text/css" id="current-color-scheme">.ColorScheme-Text { color: #fcfcfc; } </style>
  </defs>
 <path style="fill:currentColor;fill-opacity:1;stroke:none" d="M 4.5,3 C 3.8,3 3,3.7 3,4.5 3,5.3 3.8,6 4.5,6 5.33,6 6,5.3 6,4.5 6,3.7 5.33,3 4.5,3 Z M 8,3 V 4 H 19 V 3 Z m 0,2 v 1 h 4 V 5 Z M 4.5,9 C 3.732,9 3,9.71 3,10.5 3,11.3 3.732,12 4.5,12 5.3,12 6,11.3 6,10.5 6,9.71 5.3,9 4.5,9 Z M 17,11 v 1 h -1 -0 C 14.3,12 13,13.3 13,14.976562 V 15 c 0,1.108 -0.892,2 -2,2 H 8 v 1 h 3 0 C 12.7,18 14,16.672447 14,15 V 15 c 0,-1.108 0.892,-2 2,-2 h 1 v 1 l 2,-1.5 z m -9,1 v 1 h 3 c 0.4,0 0.766765,0.1 1.078125,0.3 0.0757,-0.33686 0.2,-0.64922 0.4,-0.9 C 12,12.1 11.551108,12 11,12 H 11 Z M 4.5,15 C 3.732,15 3,15.7 3,16.5 3,17.3 3.732,18 4.5,18 5.3,18 6,17.3 6,16.5 6,15.7 5.3,15 4.5,15 Z M 17,16 v 1 h -1 c -0.4,0 -0.8,-0.1 -1.1,-0.3 -0.0757,0.33686 -0.209872,0.64922 -0.4,0.9 C 14.962083,17.852191 15.448892,18 15.976562,18 H 16 17 v 1 l 2,-1.5 z" class="ColorScheme-Text"/>  
</svg>
